X:44
T:Maid of the Mill
O:No 44 Wm Clarke of Feltwell MS  1858
I:abc2nwc
M:6/8
L:1/8
K:D
A|Add dfd|cde a2d|BBB BcA|d3zzA|Add dfd|
cde a2d|BBB (B2c)|A3d2zzA|Aaa aba|agf g2f|
eef g2a|(d3c2)A|Bcd g2e|cdea2f/2d/2|BBB BcA|
d3f2a|d2a f2a|d2a a2c'|dBB BcA|d3zz|]

